X:1
T: Nan and Pop Gillies
C:Bruce Shawyer
R:Reel
Q:232
K:C
M:4/4
L:1/8
"C"c2cd edc2|"F"fga2 a4|"C"edc2 cde2|"G7"dBG2 G2AB|"C"c2cd edc2|"F"fga2 a4|"C"ge ce "G7"fd Bd|"C"c2c2 c4|
"C"C2CD EDC2|"F"FGA2 A4|"C"EDC2 CDE2|"G7"DB,G,2 G,2A,B,|"C"C2CD EDC2|"F"FGA2 A4|"C"GE CE "G7"FD B,D|"C"C2C2 C4|
"C"e2ef gfe2|"Dm/F"f2fg agf2|"G7"gab2 bag2|"G"c'd' e'2 e'4|"C"e2ef gfe2|"Dm/F"fga2 a4|"C"ge ce "G7"fd Bd|"C"c2c2 c4|
"C"E2EF GFE2|"Dm/F"F2FG AGF2|"G7"GAB2 BAG2|"G"cde2 e4|"C"E2EF GFE2|"Dm/F"FGA2 A4|"C"GE CE "G7"FD B,D|"C"C2C2 C4||
